X:1
T:Title
%%score ( 1 2 ) ( 3 4 ) ( 5 6 )
L:1/8
Q:1/4=120
M:2/4
K:C
V:1 treble nm="Picked Bass, Soprano Voice"
V:2 treble 
V:3 bass nm="Picked Bass, Tenor Voice"
V:4 bass 
V:5 bass nm="Picked Bass, Baritone Voice"
V:6 bass 
V:1
 z4 | .c2 .c2 | cB c2 | .e2 e2 | cd e2 | .g2 .g2 | ge z2 | .G2 .G2 | G4 | .c2 .c2 | cB c2 | %11
 .e2 .e2 | ef g2 | .e2 e2 | c2 BA | .G2 G2 | c4 | .c2 .c2 | cA G2 | .e2 .e2 | ed c2 | .e2 e2 | %22
 g2 ed | c2 c2 | G4 | .c2 .c2 | cB c2 | .e2 e2 | cd e2 | .c2 .c2 | c2 BA | .G2 .G2 | [Gc]4 | z4 |] %34
V:2
 x4 | x4 | x4 | x4 | x4 | x4 | z2 c2- | c2 z2 | x4 | x4 | x4 | x4 | x4 | x4 | x4 | x4 | x4 | x4 | %18
 x4 | x4 | x4 | x4 | x4 | x4 | x4 | x4 | x4 | x4 | x4 | x4 | x4 | x4 | x4 | x4 |] %34
V:3
 z4 | .A,2 .A,2 | A,.G, G,2 | .C2 C2 | A,G, G,2 | .C2 .C2 | CA, G,2 | .C2 .C2 | [CE]4 | .E2 .E2 | %10
 ED C2 | .G2 G2 | E2 z2 | .A,2 .A,2 | A,2 G,A, | .C2 .C2 | C4 | .G,2 .G,2 | G,E, G,2 | .C2 .C2 | %20
 A,.G, G,2 | .C2 .C2 | C2 G,A, | .C2 .C2 | [CE]4 | .E2 E2 | ED C2 | .G2 G2 | ED C2 | .A,2 .A,2 | %30
 A,2 G,A, | .C2 CD | C4 | z4 |] %34
V:4
 x4 | x4 | x4 | x4 | x4 | x4 | x4 | x4 | x4 | x4 | x4 | x4 | z D C2 | x4 | x4 | x4 | x4 | x4 | x4 | %19
 x4 | x4 | x4 | x4 | x4 | x4 | x4 | x4 | x4 | x4 | x4 | x4 | x4 | x4 | x4 |] %34
V:5
 z4 | .A,2 .A,2 | A,G, E,2 | .G,2 G,2 | C,D, E,2 | .A,2 .A,2 | z2 E,2- | E,2 z2 | C,4 | E,2 .E,2 | %10
 E,G, A,2 | .C2 C2 | A,2 z2 | .A,2 .A,2 | A,4 | .C,2 .C,2 | C,4 | .G,2 .G,2 | G,E, C,2 | %19
 .G,2 .G,2 | A,.G, G,2 | A,2 C2 | A,3 E,- | E,2 z2 | C,4 | .E,2 .E,2 | E,G, A,2 | .C2 C2 | %28
 A,G, E,2 | .A,2 .A,2 | A,2 G,E, | .C,2 .C,2 | C,4 | z4 |] %34
V:6
 x4 | x4 | x4 | x4 | x4 | x4 | A,G, z2 | .[B,,C,]2 .C,2 | x4 | x4 | x4 | x4 | z G, E,2 | x4 | %14
 z2 G,E, | x4 | x4 | x4 | x4 | x4 | x4 | x4 | z2 .G,2 | C,2 .C,2 | x4 | x4 | x4 | x4 | x4 | x4 | %30
 x4 | x4 | x4 | x4 |] %34

